common/icons/svgs/cc.svg

<svg xmlns="http://www.w3.org/2000/svg" width="24" height="24" viewBox="0 0 24 24">
  <g fill="none" fill-rule="evenodd" transform="translate(-456 -66)">
    <rect width="504" height="450" fill="#FFF"/>
    <g transform="translate(456 66)">
      <rect width="24" height="24"/>
      <path fill="#000" fill-rule="nonzero" d="M9.17,13.85 C8.74110475,13.8772651 8.32867289,13.6805087 8.08,13.33 C7.81424693,12.9130918 7.68492608,12.4237697 7.71,11.93 C7.71,10.6433333 8.19666667,10 9.17,10 C9.39289378,10.0078075 9.60995567,10.0732706 9.8,10.19 C10.0546475,10.3535215 10.2534653,10.5907075 10.37,10.87 L11.83,10.11 C11.2577913,9.06239482 10.1189493,8.4537034 8.93,8.56 C8.07651719,8.53304642 7.25036993,8.86278063 6.65,9.47 C6.02855525,10.1338629 5.70368723,11.0218355 5.75,11.93 C5.69664523,12.8433611 6.01805802,13.7389833 6.64,14.41 C7.26727915,15.017734 8.11750885,15.3397359 8.99,15.3 C10.184732,15.3067319 11.283713,14.6473432 11.84,13.59 L10.5,12.91 C10.314027,13.4834946 9.77267966,13.866101 9.17,13.85 L9.17,13.85 Z"/>
      <path fill="#000" fill-rule="nonzero" d="M22,7.75 C21.4684872,6.43752066 20.6757773,5.24675469 19.67,4.25 C17.6304576,2.16832935 14.8238294,1.01819046 11.91,1.07 C9.04344919,1.01491279 6.28437233,2.16060042 4.3,4.23 C3.27209631,5.245986 2.45630229,6.45608047 1.9,7.79 C0.805470202,10.4414859 0.805470202,13.4185141 1.9,16.07 C2.45311649,17.3889792 3.26201598,18.5853347 4.28,19.59 C5.28365243,20.6167338 6.47976384,21.4356624 7.8,22 C9.10463946,22.5462292 10.5056362,22.8250684 11.92,22.82 C13.35054,22.8250192 14.767875,22.5463106 16.09,22 C17.4393417,21.4404444 18.6658272,20.621655 19.7,19.59 C20.7027725,18.6045781 21.4864874,17.4187833 22,16.11 C22.5308468,14.7807713 22.7991238,13.3612805 22.79,11.93 C22.7996304,10.4986737 22.5313352,9.07908642 22,7.75 Z M18.31,18.16 C17.448905,19.0145932 16.4300456,19.6938327 15.31,20.16 C13.1460932,21.0577923 10.7139068,21.0577923 8.55,20.16 C6.37428875,19.2223353 4.644175,17.4814755 3.72,15.3 C2.80242721,13.1435489 2.80242721,10.7064511 3.72,8.55 C4.19468862,7.45821524 4.87351454,6.46712939 5.72,5.63 C7.34974505,3.90834333 9.6297663,2.95349366 12,3 C14.3748861,2.96451389 16.6587065,3.91278799 18.31,5.62 C19.1355382,6.43860136 19.7884251,7.41453124 20.23,8.49 C20.6723482,9.57562834 20.8966134,10.7377299 20.89,11.91 C20.9497102,14.2639194 20.0127723,16.5336334 18.31,18.16 L18.31,18.16 Z"/>
      <path fill="#000" fill-rule="nonzero" d="M15.43,13.85 C15.0011047,13.8772651 14.5886729,13.6805087 14.34,13.33 C14.0742469,12.9130918 13.9449261,12.4237697 13.97,11.93 C13.99,10.6433333 14.4766667,10 15.43,10 C15.6595026,10.0057318 15.8835422,10.0712203 16.08,10.19 C16.3346475,10.3535215 16.5334653,10.5907075 16.65,10.87 L18.09,10.11 C17.5279257,9.06521885 16.402946,8.44981187 15.22,8.54 C14.3665172,8.51304642 13.5403699,8.84278063 12.94,9.45 C12.3185552,10.1138629 11.9936872,11.0018355 12.04,11.91 C11.9862758,12.8216007 12.3036969,13.7161509 12.92,14.39 C13.5496997,15.0003275 14.4040936,15.3225353 15.28,15.28 C15.8620024,15.2825459 16.4332599,15.1232863 16.93,14.82 C17.432999,14.5161541 17.8469292,14.0849769 18.13,13.57 L16.77,12.89 C16.5902453,13.4750743 16.0418007,13.8679898 15.43,13.85 L15.43,13.85 Z"/>
    </g>
  </g>
</svg>

<svg xmlns="http://www.w3.org/2000/svg" viewbox="0 0 24 24"><path class="icon__shape" fill-rule="nonzero" d="M9.17 13.85a1.24 1.24 0 0 1-1.09-.52 2.38 2.38 0 0 1-.37-1.4c0-1.287.487-1.93 1.46-1.93.223.008.44.073.63.19.255.164.453.4.57.68l1.46-.76a3 3 0 0 0-2.9-1.55 3.07 3.07 0 0 0-2.28.91 3.35 3.35 0 0 0-.9 2.46 3.36 3.36 0 0 0 .89 2.48 3.17 3.17 0 0 0 2.35.89 3.2 3.2 0 0 0 2.85-1.71l-1.34-.68a1.36 1.36 0 0 1-1.33.94z"/><path class="icon__shape" fill-rule="nonzero" d="M22 7.75a10.45 10.45 0 0 0-2.33-3.5 10.6 10.6 0 0 0-7.76-3.18A10.27 10.27 0 0 0 4.3 4.23a10.91 10.91 0 0 0-2.4 3.56 10.85 10.85 0 0 0 0 8.28 10.83 10.83 0 0 0 2.38 3.52A10.93 10.93 0 0 0 7.8 22a10.57 10.57 0 0 0 4.12.82 10.82 10.82 0 0 0 4.17-.82 11.17 11.17 0 0 0 3.61-2.41 10 10 0 0 0 2.3-3.48c.53-1.33.8-2.749.79-4.18A11.06 11.06 0 0 0 22 7.75zm-3.69 10.41a9.37 9.37 0 0 1-3 2 8.82 8.82 0 0 1-6.76 0 9.2 9.2 0 0 1-4.83-4.86 8.62 8.62 0 0 1 0-6.75 9.35 9.35 0 0 1 2-2.92A8.42 8.42 0 0 1 12 3a8.6 8.6 0 0 1 6.31 2.62 8.69 8.69 0 0 1 1.92 2.87 8.93 8.93 0 0 1 .66 3.42 8.35 8.35 0 0 1-2.58 6.25z"/><path class="icon__shape" fill-rule="nonzero" d="M15.43 13.85a1.24 1.24 0 0 1-1.09-.52 2.38 2.38 0 0 1-.37-1.4c.02-1.287.507-1.93 1.46-1.93.23.006.454.071.65.19.255.164.453.4.57.68l1.44-.76a3 3 0 0 0-2.87-1.57 3.07 3.07 0 0 0-2.28.91 3.35 3.35 0 0 0-.9 2.46 3.38 3.38 0 0 0 .88 2.48 3.17 3.17 0 0 0 2.36.89 3.14 3.14 0 0 0 1.65-.46 3.34 3.34 0 0 0 1.2-1.25l-1.36-.68a1.36 1.36 0 0 1-1.34.96z"/></svg>
